Newaita-dark/actions/24/document-save-all.svg

<svg height="24" viewBox="0 0 24 24" width="24" xmlns="http://www.w3.org/2000/svg"><g fill="#e0e0e0"><path d="m10.914062 10.097656h1.984376v-7.429687c0-.273438-.21875-.496094-.496094-.496094h-.992188c-.273437 0-.496094.222656-.496094.496094zm0 0"/><path d="m15.378906 9.105469h-6.945312l3.472656 4.960937zm0 0"/><path d="m3.964844 15.070312v4.960938c0 1.101562.882812 1.988281 1.984375 1.988281h4.964843v-1.988281h-3.972656c-.550781 0-.992187-.441406-.992187-.992188v-3.96875zm0 0"/><path d="m19.347656 22.019531h-5.953125c-.273437 0-.496093-.222656-.496093-.496093v-.992188c0-.277344.222656-.5.496093-.5h5.953125c.277344 0 .496094.222656.496094.5v.992188c0 .273437-.21875.496093-.496094.496093zm0 0"/><path d="m19.347656 18.046875h-5.953125c-.273437 0-.496093-.21875-.496093-.496094v-.992187c0-.273438.222656-.496094.496093-.496094h5.953125c.277344 0 .496094.222656.496094.496094v.992187c0 .277344-.21875.496094-.496094.496094zm0 0"/></g></svg>

<svg xmlns="http://www.w3.org/2000/svg" xmlns:xlink="http://www.w3.org/1999/xlink" width="24px" height="24px" viewBox="0 0 24 24" version="1.1">
<g id="surface1">
     <defs>
  <style id="current-color-scheme" type="text/css">
   .ColorScheme-Text { color:#eeeeee; } .ColorScheme-Highlight { color:#424242; }
  </style>
 </defs>
<path style="fill:currentColor" class="ColorScheme-Text" d="M 10.914062 10.097656 L 12.898438 10.097656 L 12.898438 2.667969 C 12.898438 2.394531 12.679688 2.171875 12.402344 2.171875 L 11.410156 2.171875 C 11.136719 2.171875 10.914062 2.394531 10.914062 2.667969 Z M 10.914062 10.097656 "/>
     <defs>
  <style id="current-color-scheme" type="text/css">
   .ColorScheme-Text { color:#eeeeee; } .ColorScheme-Highlight { color:#424242; }
  </style>
 </defs>
<path style="fill:currentColor" class="ColorScheme-Text" d="M 15.378906 9.105469 L 8.433594 9.105469 L 11.90625 14.066406 Z M 15.378906 9.105469 "/>
     <defs>
  <style id="current-color-scheme" type="text/css">
   .ColorScheme-Text { color:#eeeeee; } .ColorScheme-Highlight { color:#424242; }
  </style>
 </defs>
<path style="fill:currentColor" class="ColorScheme-Text" d="M 3.964844 15.070312 L 3.964844 20.03125 C 3.964844 21.132812 4.847656 22.019531 5.949219 22.019531 L 10.914062 22.019531 L 10.914062 20.03125 L 6.941406 20.03125 C 6.390625 20.03125 5.949219 19.589844 5.949219 19.039062 L 5.949219 15.070312 Z M 3.964844 15.070312 "/>
     <defs>
  <style id="current-color-scheme" type="text/css">
   .ColorScheme-Text { color:#eeeeee; } .ColorScheme-Highlight { color:#424242; }
  </style>
 </defs>
<path style="fill:currentColor" class="ColorScheme-Text" d="M 19.347656 22.019531 L 13.394531 22.019531 C 13.121094 22.019531 12.898438 21.796875 12.898438 21.523438 L 12.898438 20.53125 C 12.898438 20.253906 13.121094 20.03125 13.394531 20.03125 L 19.347656 20.03125 C 19.625 20.03125 19.84375 20.253906 19.84375 20.53125 L 19.84375 21.523438 C 19.84375 21.796875 19.625 22.019531 19.347656 22.019531 Z M 19.347656 22.019531 "/>
     <defs>
  <style id="current-color-scheme" type="text/css">
   .ColorScheme-Text { color:#eeeeee; } .ColorScheme-Highlight { color:#424242; }
  </style>
 </defs>
<path style="fill:currentColor" class="ColorScheme-Text" d="M 19.347656 18.046875 L 13.394531 18.046875 C 13.121094 18.046875 12.898438 17.828125 12.898438 17.550781 L 12.898438 16.558594 C 12.898438 16.285156 13.121094 16.0625 13.394531 16.0625 L 19.347656 16.0625 C 19.625 16.0625 19.84375 16.285156 19.84375 16.558594 L 19.84375 17.550781 C 19.84375 17.828125 19.625 18.046875 19.347656 18.046875 Z M 19.347656 18.046875 "/>
</g>
</svg>
